IMB-X-Files/The-Ambassadors-Assets/6613bc73b13c2ea907512721_﹟19.svg

<svg fill="none" height="308" viewBox="0 0 308 308" width="308" xmlns="http://www.w3.org/2000/svg"><path d="m60.5848 92.4538v-42.3878l221.7482-.27-.45 127.613m-221.2982-84.9552 95.0352.36-95.0352 54.9872m0-55.3472v55.3472m0 0-34.9181 20.159m0 0 52.1073 30.238m-52.1073-30.238v59.963l52.1073 30.286m0-60.011 130.583-75.326-.27 54.537m-130.313 20.789v60.011m130.313-80.8h73.796m-73.796 0 .022 4.827m73.774-4.827v60.01h-73.526l-.248-55.183m-130.335 75.973 130.335-75.973" stroke="#27fff2" stroke-linecap="round" stroke-linejoin="round"/></svg>

<svg width="308" height="308" viewBox="0 0 308 308" fill="none" xmlns="http://www.w3.org/2000/svg">
    <path
        d="M60.5848 92.4538V50.066L282.333 49.796L281.883 177.409M60.5848 92.4538L155.62 92.8138L60.5848 147.801M60.5848 92.4538V147.801M60.5848 147.801L25.6667 167.96M25.6667 167.96L77.774 198.198M25.6667 167.96V227.923L77.774 258.209M77.774 198.198L208.357 122.872L208.087 177.409M77.774 198.198V258.209M208.087 177.409H281.883M208.087 177.409L208.109 182.236M281.883 177.409V237.419H208.357L208.109 182.236M77.774 258.209L208.109 182.236"
        stroke="#27FFF2" stroke-linecap="round" stroke-linejoin="round" />
</svg>
